projects/js-packages/social-logos/src/svg/nextdoor.svg

<svg clip-rule="evenodd" stroke-linecap="round" stroke-linejoin="round" stroke-miterlimit="10" viewBox="0 0 130 130" xmlns="http://www.w3.org/2000/svg"><path d="m64.25 3.53125c-31.1441.33639-57.59617 24.21945-60.46875 55.90625-3.064084 33.7993 21.85695 63.6855 55.65625 66.7505 33.7993 3.064 63.6855-21.857 66.7505-55.6568 3.064-33.7993-21.857-63.68587-55.6568-66.74995-2.1124-.1915-4.2049-.27243-6.2812-.25zm3.9375 34.90625c14.28 0 25.3125 10.1425 25.3125 23.0625v27c0 .6848-.5652 1.25-1.25 1.25h-11.3438c-.6825-.0054-1.2445-.5674-1.25-1.25v-25.125c0-5.58-4.3087-11.9375-11.4687-11.9375-7.47 0-11.4687 6.3575-11.4687 11.9375v25.125c-.0001.6848-.5652 1.25-1.25 1.25h-11.3438c-.6793 0-1.2188-.5707-1.2188-1.25v-24.3438c.0006-.7399-.5292-1.3637-1.25-1.5312-13.13-2.93-15.115-10.285-15.375-21.125-.0053-.3323.1419-.6694.375-.9062.2332-.2369.5427-.3751.875-.375l11.6876.0624c.6598.0099 1.1871.5284 1.2187 1.1876.13 4.4399.4375 9.4062 4.4375 9.4062.83 0 1.4425-1.1787 1.8125-1.7188 4.41-6.48 12.28-10.7187 21.5-10.7187z"/></svg>

<?xml version="1.0" encoding="UTF-8" standalone="no"?>
<!DOCTYPE svg PUBLIC "-//W3C//DTD SVG 1.1//EN" "http://www.w3.org/Graphics/SVG/1.1/DTD/svg11.dtd">
<!-- Created with Vectornator (http://vectornator.io/) -->
<svg height="100%" stroke-miterlimit="10" style="fill-rule:nonzero;clip-rule:evenodd;stroke-linecap:round;stroke-linejoin:round;" version="1.1" viewBox="0 0 130 130" width="100%" xml:space="preserve" xmlns="http://www.w3.org/2000/svg" xmlns:xlink="http://www.w3.org/1999/xlink">
<defs/>
<g id="Untitled">
<path d="M64.25 3.53125C33.1059 3.86764 6.65383 27.7507 3.78125 59.4375C0.717166 93.2368 25.6382 123.123 59.4375 126.188C93.2368 129.252 123.123 104.331 126.188 70.5312C129.252 36.7319 104.331 6.84533 70.5312 3.78125C68.4188 3.58975 66.3263 3.50882 64.25 3.53125ZM68.1875 38.4375C82.4675 38.4375 93.5 48.58 93.5 61.5L93.5 88.5C93.5 89.1848 92.9348 89.75 92.25 89.75L80.9062 89.75C80.2237 89.7446 79.6617 89.1826 79.6562 88.5L79.6562 63.375C79.6562 57.795 75.3475 51.4375 68.1875 51.4375C60.7175 51.4375 56.7188 57.795 56.7188 63.375L56.7188 88.5C56.7187 89.1848 56.1536 89.75 55.4688 89.75L44.125 89.75C43.4457 89.75 42.9062 89.1793 42.9062 88.5L42.9062 64.1562C42.9068 63.4163 42.377 62.7925 41.6562 62.625C28.5262 59.695 26.5412 52.34 26.2812 41.5C26.2759 41.1677 26.4231 40.8306 26.6562 40.5938C26.8894 40.3569 27.1989 40.2187 27.5312 40.2188L39.2188 40.2812C39.8786 40.2911 40.4059 40.8096 40.4375 41.4688C40.5675 45.9087 40.875 50.875 44.875 50.875C45.705 50.875 46.3175 49.6963 46.6875 49.1562C51.0975 42.6762 58.9675 38.4375 68.1875 38.4375Z" fill="#000000" fill-rule="nonzero" opacity="1" stroke="none"/>
</g>
</svg>
